X: 13
T:Cuckoo,The. ST.13
M:4/4
L:1/4
Q:80
S:Annonymous Staffordshire MS, Early 19thC.
R:Air
O:England
A:Staffordshire
N:First bar is unclear on ms. but appears to be similar to bar 5 which I
N:h
N:e copied to bar 1.
Z:vmp.Tim Willets
K:G
G>ABG|cedz|g>ed>B|(A/2F/2)(A/2B/2)Az|!
G>ABG|cedz|g>ed>B|{B}(A/2G/2)A/2B/2Az|!
gag>f|egdz|c>edc|B>cdz|!
g>agf|egdz|cABG|FAA2|!
G>ABG|cedz|g>ed>B|(A/2G/2)(A/2B/2)G2|!
.g/2d/2 z .g/2d/2 z|.g/2d/2 z .g/2d/2 z|\
G>ed>B|{B}(A/2G/2)(A/2B/2)G2|]
